!!!COM: Palestrina, Giovanni Perluigi da
!!!OPR: De Beata Marie Virginis (III)
!!!OTL: Gloria
**kern	**kern	**kern	**kern	**kern
*Ibass	*Itenor	*Itenor	*Icalto	*Icant
!Bassus	!Tenor 2	!Tenor 1	!Altus	!Cantus
*clefF4	*clefGv2	*clefGv2	*clefG2	*clefG2
*k[]	*k[]	*k[]	*k[]	*k[]
*G:mix	*G:mix	*G:mix	*G:mix	*G:mix
*M4/2	*M4/2	*M4/2	*M4/2	*M4/2
=1	=1	=1	=1	=1
0r	0r	0r	0r	1cc
.	.	.	.	1a
=2	=2	=2	=2	=2
0r	1c	0r	0r	1g
.	1A	.	.	4a
.	.	.	.	4b
.	.	.	.	4cc
.	.	.	.	4a
=3	=3	=3	=3	=3
0r	1G	0r	1g	4b
.	.	.	.	4cc
.	.	.	.	1dd
.	1A	.	1e	.
.	.	.	.	2cc
=4	=4	=4	=4	=4
1G	1.B	0r	1d	4dd
.	.	.	.	4cc
.	.	.	.	4b
.	.	.	.	4a
1E	.	.	4e	1g
.	.	.	4f#	.
.	4A	.	4g	.
.	4G	.	4e	.
=5	=5	=5	=5	=5
1D	1A	0r	4f#	1dd
.	.	.	2g	.
.	.	.	4f#	.
1E	1G	.	1g	2b
.	.	.	.	[2cc
=6	=6	=6	=6	=6
1.F	2r	1c	0a	4cc]
.	.	.	.	4b
.	1c	.	.	4a
.	.	.	.	4g
.	.	1A	.	2f
4E	[2d	.	.	2f
4D	.	.	.	.
=7	=7	=7	=7	=7
1E	4d]	1G	1r	2.g
.	8c#	.	.	.
.	8B	.	.	.
.	2c#	.	.	.
.	.	.	.	4e
2D	2d	1A	1a	4f
.	.	.	.	4g
2D	[2d	.	.	4a
.	.	.	.	4f
=8	=8	=8	=8	=8
2G	4d]	1.B	2d	2.g
.	4c	.	.	.
1G	4B	.	2d	.
.	4A	.	.	4a
.	1G	.	2d	2b
2E	.	4A	[2g	2cc
.	.	4G	.	.
=9	=9	=9	=9	=9
0D	0d	0A	2g]	0dd
.	.	.	4f#	.
.	.	.	4e	.
.	.	.	1f#	.
=10	=10	=10	=10	=10
[0G	[0d	[0G	[0g	[0b
=11	=11	=11	=11	=11
0G]	0d]	0G]	0g]	0b]
!! Benedicimus te
*Ibass	*Itenor	*Itenor	*Icalto	*Icant
!Bassus	!Tenor 2	!Tenor 1	!Altus	!Cantus
*clefF4	*clefGv2	*clefGv2	*clefG2	*clefG2
*k[]	*k[]	*k[]	*k[]	*k[]
*G:mix	*G:mix	*G:mix	*G:mix	*G:mix
*M4/2	*M4/2	*M4/2	*M4/2	*M4/2
=12	=12	=12	=12	=12
0r	0r	0r	1r	1.dd
.	.	.	[1g	.
.	.	.	.	2cc
=13	=13	=13	=13	=13
0r	0r	0r	2g]	2b
.	.	.	2f	2a
.	.	.	2e	4cc
.	.	.	.	4b
.	.	.	2d	4b
.	.	.	.	8a
.	.	.	.	8g
=14	=14	=14	=14	=14
1r	1.d	0r	1f#	1a
[1G	.	.	2.g	2b
.	2c	.	.	2cc
.	.	.	8f	.
.	.	.	8e	.
=15	=15	=15	=15	=15
2G]	2B	0r	1d	1dd
2F	2A	.	.	.
2E	4c	.	1r	2r
.	4B	.	.	.
2D	4B	.	.	[2dd
.	8A	.	.	.
.	8G	.	.	.
=16	=16	=16	=16	=16
1F	1A	1r	2r	2dd]
.	.	.	1a	2cc
1G	1B	[1d	.	1b
.	.	.	2g	.
=17	=17	=17	=17	=17
1r	2r	2d]	2f	2a
.	1g	2c	2e	2cc
2r	.	2B	2g	2.dd
2D	2f	2A	2a	.
.	.	.	.	8cc
.	.	.	.	8dd
=18	=18	=18	=18	=18
1A	2e	1c	2r	4ee
.	.	.	.	4ff
.	2e	.	1a	2.ee
2D	1f	1d	.	.
.	.	.	.	4dd
2D	.	.	2a	[2dd
=19	=19	=19	=19	=19
0A	1e	0e	2.a	2dd]
.	.	.	.	4cc#
.	.	.	4a	4b
.	1A	.	1a	1cc#
=20	=20	=20	=20	=20
[0D	[0A	[0d	[0f#	[0dd
=21	=21	=21	=21	=21
0D]	0A]	0d]	0f#]	0dd]
!! Glorificamus te
*Ibass	*Itenor	*Itenor	*Icalto	*Icant
!Bassus	!Tenor 2	!Tenor 1	!Altus	!Cantus
*clefF4	*clefGv2	*clefGv2	*clefG2	*clefG2
*k[]	*k[]	*k[]	*k[]	*k[]
*G:mix	*G:mix	*G:mix	*G:mix	*G:mix
*M4/2	*M4/2	*M4/2	*M4/2	*M4/2
=22	=22	=22	=22	=22
1r	1d	0r	0r	0r
1G	2e	.	.	.
.	2d	.	.	.
=23	=23	=23	=23	=23
2A	2c	0r	2r	0r
2G	2B	.	2g	.
2F	4A	.	2a	.
.	4B	.	.	.
2E	4c	.	2g	.
.	8B	.	.	.
.	8c	.	.	.
=24	=24	=24	=24	=24
4D	2d	0r	1.f	0r
4E	.	.	.	.
4F	4c	.	.	.
4G	4B	.	.	.
4A	1c	.	.	.
4B	.	.	.	.
[2c	.	.	2e	.
=25	=25	=25	=25	=25
2c]	1G	2r	1d	1r
2B	.	2d	.	.
2c	[1g	2e	2r	2r
2G	.	2d	2B	2dd
=26	=26	=26	=26	=26
2r	1g]	2c	2c	2ee
2G	.	2B	2g	2dd
1A	1r	4A	[1e	[1cc
.	.	4B	.	.
.	.	4c	.	.
.	.	4d	.	.
=27	=27	=27	=27	=27
1E	1g	4e	1e]	2cc]
.	.	4f	.	.
.	.	2g	.	2b
1F	[1a	1f	2c	4a
.	.	.	.	4b
.	.	.	4A	4cc
.	.	.	4B	4dd
=28	=28	=28	=28	=28
1C	2a]	1e	4c	4ee
.	.	.	4d	4ff
.	2g	.	2e	2.ee
1D	1f	[1A	4f	.
.	.	.	4g	4dd
.	.	.	4a	[2dd
.	.	.	4b	.
=29	=29	=29	=29	=29
0A	0e	2A]	[0a	2dd]
.	.	1a	.	4cc#
.	.	.	.	4b
.	.	.	.	1cc#
.	.	2e	.	.
=30	=30	=30	=30	=30
[0D	[0d	[0f#	1a_	[0dd
.	.	.	1a_	.
=31	=31	=31	=31	=31
0D]	0d]	0f#]	0a]	0dd]
!! Domine Deus Rex
*Ibass	*Itenor	*Itenor	*Icalto	*Icant
!Bassus	!Tenor 2	!Tenor 1	!Altus	!Cantus
*clefF4	*clefGv2	*clefGv2	*clefG2	*clefG2
*k[]	*k[]	*k[]	*k[]	*k[]
*G:mix	*G:mix	*G:mix	*G:mix	*G:mix
*M4/2	*M4/2	*M4/2	*M4/2	*M4/2
=32	=32	=32	=32	=32
0r	0r	0r	0r	1.dd
.	.	.	.	2cc
=33	=33	=33	=33	=33
0r	0r	0r	1.g	2b
.	.	.	.	4g
.	.	.	.	4a
.	.	.	.	4b
.	.	.	.	4cc
.	.	.	2f	[2dd
=34	=34	=34	=34	=34
0r	1r	1.g	1e	2dd]
.	.	.	.	2cc#
.	2r	.	1d	1dd
.	[2d	2f	.	.
=35	=35	=35	=35	=35
1r	2d]	1e	1A	0r
.	2c	.	.	.
[1G	2B	2.d	1r	.
.	4G	.	.	.
.	4A	4c	.	.
=36	=36	=36	=36	=36
2G]	4B	2B	1r	1dd
.	4c	.	.	.
2F	1d	2A	.	.
1E	.	1G	1e	[1gg
.	2c#	.	.	.
=37	=37	=37	=37	=37
4D	1d	2.A	1.a	2gg]
4E	.	.	.	.
4F	.	.	.	2ff
4G	.	4B	.	.
4A	1r	1c	.	1ee
4B	.	.	.	.
4c	.	.	4g	.
4A	.	.	4f	.
=38	=38	=38	=38	=38
4B	0r	0r	2g	1dd
4c	.	.	.	.
1d	.	.	2f	.
.	.	.	1e	1r
2c#	.	.	.	.
=39	=39	=39	=39	=39
1d	1d	1r	1d	0r
1r	2.g	2r	1r	.
.	.	2d	.	.
.	4f	.	.	.
=40	=40	=40	=40	=40
0r	1e	2e	0r	1g
.	.	2g	.	.
.	2d	2f	.	2a
.	2c	2e	.	[2cc
=41	=41	=41	=41	=41
1G	1g	2.d	1r	4cc]
.	.	.	.	4b
.	.	.	.	2b
.	.	4d	.	.
2A	1r	2c	2r	1a
[2c	.	[2e	2c	.
=42	=42	=42	=42	=42
4c]	1G	2e]	2e	1g
4B	.	.	.	.
2B	.	2d	2g	.
1A	2A	2c	2f	1cc
.	[2c	2A	2e	.
=43	=43	=43	=43	=43
1G	4c]	2r	2g	1dd
.	4B	.	.	.
.	2B	2d	2g	.
[1C	2A	1c	2.e	[1ee
.	2G	.	.	.
.	.	.	4f#	.
=44	=44	=44	=44	=44
2C]	2c	1G	0g	2ee]
2BB	2d	.	.	2dd
1C	2.e	2G	.	2.cc
.	.	2c	.	.
.	4d	.	.	4b
=45	=45	=45	=45	=45
1C	2c	2c	1e	2a
.	2B	2e	.	2g
[1D	2A	[1d	2a	2f#
.	2B	.	[2g	2g
=46	=46	=46	=46	=46
1D]	1A	0d]	2g]	1a
.	.	.	2f#	.
1G	1G	.	1g	1b
=47	=47	=47	=47	=47
[0G	[0G	[0d	[0g	[0b
=48	=48	=48	=48	=48
0G]	0G]	0d]	0g]	0b]
*	*	*	*	*-
!! Domine Deus Agnus
*Ibass	*Itenor	*Itenor	*Icalto
!Bassus	!Tenor 2	!Tenor 1	!Altus
*clefF4	*clefGv2	*clefGv2	*clefG2
*k[]	*k[]	*k[]	*k[]
*G:mix	*G:mix	*G:mix	*G:mix
*M4/2	*M4/2	*M4/2	*M4/2
=49	=49	=49	=49
0r	0r	0r	1c
.	.	.	1f
=50	=50	=50	=50
0r	1r	0r	2e
.	.	.	2f
.	1G	.	2.g
.	.	.	4f
=51	=51	=51	=51
0r	1c	0r	4e
.	.	.	4d
.	.	.	2e
.	2B	.	2d
.	2c	.	[2c
=52	=52	=52	=52
0r	1d	1G	2c]
.	.	.	2B
.	1e	1c	4A
.	.	.	4B
.	.	.	2c
=53	=53	=53	=53
0r	2d	2B	2G
.	1c	2c	2A
.	.	1d	1G
.	2B	.	.
=54	=54	=54	=54
1C	1c	2.e	1g
.	.	4d	.
1F	1A	4c	1a
.	.	4B	.
.	.	[2c	.
=55	=55	=55	=55
2E	2r	2c]	2g
2F	2d	2A	2.a
1G	2d	4B	.
.	.	4c	4g
.	2B	[2d	[2g
=56	=56	=56	=56
1A	1c	4d]	4g]
.	.	4c	8f#
.	.	.	8e
.	.	1c	2f#
1G	2d	.	2.g
.	[2g	2B	.
.	.	.	4f
=57	=57	=57	=57
2r	2g]	2c	2e
1c	2f	2A	2c
.	2e	1G	2r
2B	2d	.	[2g
=58	=58	=58	=58
1A	1c	2r	2g]
.	.	1c	2f
2.G	2r	.	2e
.	[2d	2B	4d
4F	.	.	4e
=59	=59	=59	=59
4D	2d]	1A	4f
4E	.	.	4g
2F	2c	.	2.a
1G	1B	[1d	.
.	.	.	4g
.	.	.	[2g
=60	=60	=60	=60
1D	2.A	1d]	2g]
.	.	.	2f
.	4B	.	.
1r	4c	2r	4e
.	4d	.	4d
.	[2e	[2g	4c
.	.	.	4B
=61	=61	=61	=61
1r	2e]	2g]	2c
.	1d	2f	2d
1A	.	2.e	1a
.	2c	.	.
.	.	8d	.
.	.	8c	.
=62	=62	=62	=62
2G	1d	2B	2r
2.F	.	2A	1a
.	1r	1c	.
8E	.	.	.
8D	.	.	.
2E	.	.	2g
=63	=63	=63	=63
1D	2r	1d	1f
.	1a	.	.
1C	.	1r	1e
.	2g	.	.
=64	=64	=64	=64
4D	1f	2r	1d
4E	.	.	.
4F	.	1a	.
4G	.	.	.
4A	1e	.	2c
4B	.	.	.
2c	.	2g	2cc
=65	=65	=65	=65
1d	4d	1f	2b-
.	4e	.	.
.	2.f	.	2.a
2B-	.	1d	.
.	4e	.	8g
.	.	.	8f
2B-	[2d	.	2g
=66	=66	=66	=66
0A	2d]	0e	0a
.	4c#	.	.
.	4B	.	.
.	1c#	.	.
=67	=67	=67	=67
[0D	[0d	[0f#	[0a
=68	=68	=68	=68
0D]	0d]	0f#]	0a]
*-	*-	*-	*-
!! Qui tollis
**kern	**kern	**kern	**kern	**kern
*Ibass	*Itenor	*Itenor	*Icalto	*Icant
!Bassus	!Tenor 2	!Tenor 1	!Altus	!Cantus
*clefF4	*clefGv2	*clefGv2	*clefG2	*clefG2
*k[]	*k[]	*k[]	*k[]	*k[]
*G:mix	*G:mix	*G:mix	*G:mix	*G:mix
*M4/2	*M4/2	*M4/2	*M4/2	*M4/2
=69	=69	=69	=69	=69
1G	0r	0r	0r	0r
1F#	.	.	.	.
=70	=70	=70	=70	=70
1G	1d	0r	1r	0r
1E	1c#	.	1g	.
=71	=71	=71	=71	=71
1D	1d	0r	1f#	1r
1G	1B	.	1g	1dd
=72	=72	=72	=72	=72
2A	1A	0r	1e	1cc#
2A	.	.	.	.
2.B	2r	.	1d	1dd
.	2G	.	.	.
4c	.	.	.	.
=73	=73	=73	=73	=73
1d	4G	1g	1r	1b
.	4A	.	.	.
.	4B	.	.	.
.	4c	.	.	.
1D	1d	1f#	2r	1a
.	.	.	2a	.
=74	=74	=74	=74	=74
0r	2G	1g	1.b	1dd
.	2g	.	.	.
.	[1g	1e	.	2ee
.	.	.	2g	2cc
=75	=75	=75	=75	=75
2r	2g]	1d	2.a	4dd
.	.	.	.	4ee
2d	2f	.	.	4ff
.	.	.	4b	4dd
2c	2e	1g	2cc	4ee
.	.	.	.	4ff
2G	2d	.	2b	[2gg
=76	=76	=76	=76	=76
1c	1e	1g	1cc	4gg]
.	.	.	.	4ff
.	.	.	.	2ee
[1d	1a	2.g	2r	2dd
.	.	.	2a	[2ff
.	.	4f	.	.
=77	=77	=77	=77	=77
2d]	1d	2f	2a	4ff]
.	.	.	.	4ee
2G	.	2g	2b-	1dd
1A	2r	1e	1a	.
.	[2a	.	.	2cc#
=78	=78	=78	=78	=78
2D	4a]	1d	1f	1dd
.	4g	.	.	.
1d	1f	.	.	.
.	.	1r	[1a	1r
4c	4e	.	.	.
4B	4d	.	.	.
=79	=79	=79	=79	=79
1.c	1.e	0r	2a]	0r
.	.	.	4g	.
.	.	.	4f	.
.	.	.	2g	.
2A	2f#	.	2a	.
=80	=80	=80	=80	=80
1G	2.g	2r	2d	1r
.	.	1g	1b-	.
.	8f	.	.	.
.	8e	.	.	.
1r	1d	.	.	[1dd
.	.	4f	4a	.
.	.	4e	4g	.
=81	=81	=81	=81	=81
0r	0r	1.f	1.a	2dd]
.	.	.	.	4cc
.	.	.	.	4b
.	.	.	.	[1cc
.	.	4e	4g	.
.	.	4d	4f	.
=82	=82	=82	=82	=82
1r	2r	2c	2e	2cc]
.	1d	2d	2f	2a
1G	.	1B	1g	1g
.	2e	.	.	.
=83	=83	=83	=83	=83
2A	2f	0r	1r	1cc
1c	2e	.	.	.
.	2.d	.	1g	1dd
2B	.	.	.	.
.	4e	.	.	.
=84	=84	=84	=84	=84
0A	2f	1r	1a	2.cc
.	2e	.	.	.
.	.	.	.	4dd
.	1a	1c	[1cc	2ee
.	.	.	.	2ff#
=85	=85	=85	=85	=85
1G	1r	1d	2cc]	1gg
.	.	.	2b	.
2.A	2r	2.c	[1a	2ff
.	2e	.	.	[2ee
4B	.	4d	.	.
=86	=86	=86	=86	=86
2c#	2A	2e	1a]	2ee]
2d	2d	2f	.	1dd
1G	2d	4g	1b	.
.	.	4f	.	.
.	[2g	4e	.	[2ee
.	.	4d	.	.
=87	=87	=87	=87	=87
0A	2g]	2c	0a	2ee]
.	2f	2d	.	1dd
.	1e	2e	.	.
.	.	2A	.	2cc#
=88	=88	=88	=88	=88
[0D	[0d	[0A	[0f#	[0dd
=89	=89	=89	=89	=89
0D]	0d]	0A]	0f#]	0dd]
!! Quoniam
*Ibass	*Itenor	*Itenor	*Icalto	*Icant
!Bassus	!Tenor 2	!Tenor 1	!Altus	!Cantus
*clefF4	*clefGv2	*clefGv2	*clefG2	*clefG2
*k[]	*k[]	*k[]	*k[]	*k[]
*G:mix	*G:mix	*G:mix	*G:mix	*G:mix
*M4/2	*M4/2	*M4/2	*M4/2	*M4/2
=90	=90	=90	=90	=90
0r	0r	0r	1.g	1r
.	.	.	.	1dd
.	.	.	2f	.
=91	=91	=91	=91	=91
0r	0r	1r	2e	1cc
.	.	.	2f	.
.	.	2r	2d	2b
.	.	[2g	2c	2cc
=92	=92	=92	=92	=92
0r	0r	2g]	1d	1a
.	.	2f	.	.
.	.	2e	2g	2g
.	.	2f	2a	2cc
=93	=93	=93	=93	=93
0r	0r	2d	2b	2dd
.	.	2c	2cc	2.ee
.	.	2.f	2.a	.
.	.	.	.	4dd
.	.	.	.	[2dd
.	.	4g	4b	.
=94	=94	=94	=94	=94
1r	2r	1e	1g	2dd]
.	1g	.	.	2cc#
2r	.	1d	[1a	1dd
[2d	2f	.	.	.
=95	=95	=95	=95	=95
2d]	1e	1A	1a]	2.ee
2c	.	.	.	.
.	.	.	.	4ff
2B	2d	2r	1g	1gg
2c	2e	[2c	.	.
=96	=96	=96	=96	=96
2A	2f	2c]	2a	0r
2G	1g	2d	2b	.
1c	.	2e	2.cc	.
.	2e	[2g	.	.
.	.	.	4b	.
=97	=97	=97	=97	=97
2.d	2r	2g]	1a	1.dd
.	1d	2f#	.	.
4c	.	.	.	.
2B	.	2g	[1g	.
2c	[2g	2e	.	2cc
=98	=98	=98	=98	=98
2G	4g]	2d	1g]	2b
.	4f	.	.	.
1c	4e	1e	.	2cc
.	4d	.	.	.
.	2c	.	2r	2a
2B	2d	2d	2g	2g
=99	=99	=99	=99	=99
1.A	2e	2c	1a	2.cc
.	2f	2A	.	.
.	.	.	.	4dd
.	2e	2c	1a	2ee
2D	2d	2d	.	[2ff
=100	=100	=100	=100	=100
2.F	4c	0A	0a	4ff]
.	8d	.	.	4ee
.	8e	.	.	.
.	2f	.	.	1dd
4G	.	.	.	.
1A	1e	.	.	.
.	.	.	.	2cc#
=101	=101	=101	=101	=101
[0D	[0d	[0A	[0f#	[0dd
=102	=102	=102	=102	=102
0D]	0d]	0A]	0f#]	0dd]
!! Tu solus Altissimus
*Ibass	*Itenor	*Itenor	*Icalto	*Icant
!Bassus	!Tenor 2	!Tenor 1	!Altus	!Cantus
*clefF4	*clefGv2	*clefGv2	*clefG2	*clefG2
*k[]	*k[]	*k[]	*k[]	*k[]
*G:mix	*G:mix	*G:mix	*G:mix	*G:mix
*M4/2	*M4/2	*M4/2	*M4/2	*M4/2
=103	=103	=103	=103	=103
0r	0r	0r	0r	1gg
.	.	.	.	1ff#
=104	=104	=104	=104	=104
0r	0r	0r	1cc	1gg
.	.	.	1b	2r
.	.	.	.	2dd
=105	=105	=105	=105	=105
1r	0r	0r	2cc	4ee
.	.	.	.	4ff
.	.	.	2g	4gg
.	.	.	.	4ee
1d	.	.	2a	2ff
.	.	.	2b	4ee
.	.	.	.	4dd
=106	=106	=106	=106	=106
1c	1g	0r	2.cc	2ee
.	.	.	.	2ee
.	.	.	4b	.
1d	1f#	.	2a	2.dd
.	.	.	[2d	.
.	.	.	.	4cc
=107	=107	=107	=107	=107
1G	1g	0r	2d]	1b
.	.	.	2e	.
2A	2r	.	2f	2a
2B	2d	.	[2g	2dd
=108	=108	=108	=108	=108
2c	2e	0r	2g]	2.cc
2A	2f	.	1cc	.
.	.	.	.	4dd
1G	2.g	.	.	4ee
.	.	.	.	4dd
.	.	.	[2b	[2dd
.	4f	.	.	.
=109	=109	=109	=109	=109
1r	1e	1g	2b]	2dd]
.	.	.	4a	2cc#
.	.	.	4g	.
2r	1d	1f#	2.a	1dd
2d	.	.	.	.
.	.	.	4b	.
=110	=110	=110	=110	=110
1c	1e	1g	1cc	2r
.	.	.	.	1gg
1d	1r	2r	1a	.
.	.	2d	.	2ff#
=111	=111	=111	=111	=111
2r	0r	2e	1cc	2gg
2A	.	2f	.	4ff
.	.	.	.	4ee
2B	.	[1g	2b	2dd
2c	.	.	2e	[2ee
=112	=112	=112	=112	=112
1d	0r	2g]	0a	2ee]
.	.	2f	.	1dd
1A	.	1e	.	.
.	.	.	.	2cc#
=113	=113	=113	=113	=113
1B-	2r	1d	1f	1dd
.	1d	.	.	.
1G	.	1r	1b-	1r
.	2e	.	.	.
=114	=114	=114	=114	=114
2F	2.f	1c	[0a	2r
2.F	.	.	.	1cc
.	8e	.	.	.
.	8d	.	.	.
.	2c	2.f	.	.
4E	.	.	.	.
[2D	2d	.	.	[2ff
.	.	4e	.	.
=115	=115	=115	=115	=115
2D]	[0A	2d	1a_	2ff]
2C#	.	2e	.	2ee
2.D	.	2.f	1a_	4dd
.	.	.	.	4ee
.	.	.	.	[2ff
4E	.	8e	.	.
.	.	8d	.	.
=116	=116	=116	=116	=116
2.F	0A]	2c	0a]	4ff]
.	.	.	.	4ee
.	.	2f	.	1dd
4G	.	.	.	.
1A	.	1e	.	.
.	.	.	.	2cc#
=117	=117	=117	=117	=117
[0D	[0A	[0d	[0f#	[0dd
=118	=118	=118	=118	=118
0D]	0A]	0d]	0f#]	0dd]
!! Amen
*Ibass	*Itenor	*Itenor	*Icalto	*Icant
!Bassus	!Tenor 2	!Tenor 1	!Altus	!Cantus
*clefF4	*clefGv2	*clefGv2	*clefG2	*clefG2
*k[]	*k[]	*k[]	*k[]	*k[]
*G:mix	*G:mix	*G:mix	*G:mix	*G:mix
*M4/2	*M4/2	*M4/2	*M4/2	*M4/2
=119	=119	=119	=119	=119
0r	0r	0r	1r	1.dd
.	.	.	1g	.
.	.	.	.	2b
=120	=120	=120	=120	=120
0r	0r	0r	2e	2.cc
.	.	.	1f	.
.	.	.	.	4b
.	.	.	.	2a
.	.	.	2e	2g
=121	=121	=121	=121	=121
0r	0r	0r	2d	2a
.	.	.	4c	1cc
.	.	.	4d	.
.	.	.	4e	.
.	.	.	4f#	.
.	.	.	[2g	2b
=122	=122	=122	=122	=122
1r	0r	1.d	2g]	1a
.	.	.	2f#	.
1G	.	.	1g	2b
.	.	2B	.	[2g
=123	=123	=123	=123	=123
2E	0r	2.c	2r	2g]
1F	.	.	2c	2.a
.	.	4B	.	.
.	.	2A	2d	.
.	.	.	.	4b
2E	.	2G	2e	2cc
=124	=124	=124	=124	=124
2D	0r	2A	2f	2dd
4C	.	1c	1e	2.g
4D	.	.	.	.
4E	.	.	.	.
4F#	.	.	.	4a
[2G	.	2B	2d	2b
=125	=125	=125	=125	=125
2G]	1r	1A	2c	1cc
2F#	.	.	2A	.
[1G	[1d	1G	4B	2.b
.	.	.	4A	.
.	.	.	4G	.
.	.	.	4A	4cc
=126	=126	=126	=126	=126
1G]	2d]	2.g	4B	1dd
.	.	.	4c	.
.	2B	.	2d	.
.	.	4f	.	.
2r	2.c	4e	1g	1ee
.	.	4d	.	.
[2c	.	[2e	.	.
.	4B	.	.	.
=127	=127	=127	=127	=127
2c]	2A	4e]	2a	2r
.	.	4c	.	.
2B	2G	2d	2b	2gg
2.A	2A	2c	2.cc	2ff
.	[2c	2e	.	2ee
4G	.	.	4b	.
=128	=128	=128	=128	=128
2F	2c]	4f	2a	0dd
.	.	4e	.	.
2G	2B	4d	1g	.
.	.	4c	.	.
1D	1A	1d	.	.
.	.	.	2f#	.
=129	=129	=129	=129	=129
[0G	[0G	[0d	[0g	[0b
=130	=130	=130	=130	=130
0G]	0G]	0d]	0g]	0b]
==	==	==	==	==
*-	*-	*-	*-	*-
!!!CDT: 1525/^1526/-1594/2/2
!!!OCY: Italia
!!!AGN: Mass (Paraphrase)
!!!AST: renaissance, vocal
!!!ASW: Gregorian Mass
!!!PWK: Masses, Book Mantuan I
!!!RNB: Cadence finals: D
!!!YOR: Le Opere Complete, v. 18, p. 162
!!!YOO: Rome, Italy: Fratelli Scalera
!!!END: 1992//
!!!EED: John Miller
!!!YEC: Copyright 2000, John Miller
!!!YEN: United States of America
!!!YEM: Rights to all derivative electronic formats reserved.
!!!YEM: Refer to licensing agreement for further details.
!!!YEM: This file must be accompanied by the licensing agreement.
!!!YEM: A copy of the licensing agreement may be found at http://www.music-cog.ohio-state.edu/HumdrumDatabases/Palestrina/license.txt
!!!EMD: converted to Humdrum by Bret Aarden
